Chromino/wwwroot/image/button/Memo.svg

<?xml version="1.0" encoding="UTF-8" standalone="no"?>
<svg
   xmlns:dc="http://purl.org/dc/elements/1.1/"
   xmlns:cc="http://creativecommons.org/ns#"
   xmlns:rdf="http://www.w3.org/1999/02/22-rdf-syntax-ns#"
   xmlns:svg="http://www.w3.org/2000/svg"
   xmlns="http://www.w3.org/2000/svg"
   xmlns:sodipodi="http://sodipodi.sourceforge.net/DTD/sodipodi-0.dtd"
   xmlns:inkscape="http://www.inkscape.org/namespaces/inkscape"
   version="1.1"
   viewBox="0 0 446.19633 461.09567"
   xml:space="preserve"
   id="svg34"
   sodipodi:docname="Memo.svg"
   inkscape:version="0.92.4 (5da689c313, 2019-01-14)"
   width="446.19632"
   height="461.09567"><sodipodi:namedview
   pagecolor="#ffffff"
   bordercolor="#666666"
   borderopacity="1"
   objecttolerance="10"
   gridtolerance="10"
   guidetolerance="10"
   inkscape:pageopacity="0"
   inkscape:pageshadow="2"
   inkscape:window-width="1920"
   inkscape:window-height="1017"
   id="namedview36"
   showgrid="true"
   inkscape:zoom="1.03"
   inkscape:cx="-5.1362203"
   inkscape:cy="242.22491"
   inkscape:window-x="-8"
   inkscape:window-y="-8"
   inkscape:window-maximized="1"
   inkscape:current-layer="svg34"><inkscape:grid
     type="xygrid"
     id="grid4690"
     originx="405.10063"
     originy="48.548265" /></sodipodi:namedview><metadata
   id="metadata2"><rdf:RDF><cc:Work
       rdf:about=""><dc:format>image/svg+xml</dc:format><dc:type
         rdf:resource="http://purl.org/dc/dcmitype/StillImage" /><dc:title /></cc:Work></rdf:RDF></metadata><defs
   id="defs7">
	
	
	
	
	
	
	
	
	
	
	
<clipPath
   id="b"><g
     id="use4"><path
       d="m 376,153.34 c -4.418,0 -8,3.582 -8,8 v 256 c 0,13.234 -10.766,24 -24,24 H 40 c -13.234,0 -24,-10.766 -24,-24 v -304 c 0,-13.234 10.766,-24 24,-24 h 256 c 4.418,0 8,-3.582 8,-8 0,-4.418 -3.582,-8 -8,-8 H 40 c -22.056,0 -40,17.944 -40,40 v 304 c 0,22.056 17.944,40 40,40 h 304 c 22.056,0 40,-17.944 40,-40 v -256 c 0,-4.418 -3.582,-8 -8,-8 z"
       id="path855"
       inkscape:connector-curvature="0" /><path
       d="M 466.31,12.823 C 460.6764,6.3939 453.472,2.035 446.024,0.548 438.576,-0.9387 431.78,0.62587 426.889,4.9525 l -208.11,183.88 c -0.61503,0.54275 -1.0812,1.243 -1.3704,2.0581 l -16.574,46.667 c -0.86565,2.4387 -0.0533,5.5905 2.0631,8.0043 1.4265,1.6269 3.2586,2.7058 5.0722,3.0678 0.87895,0.17546 1.7532,0.1833 2.575,0.003 l 48.216,-10.579 c 0.84213,-0.18455 1.5929,-0.56015 2.2076,-1.1033 l 208.11,-183.88 c 4.8958,-4.3247 7.3046,-10.892 6.7811,-18.496 -0.52345,-7.6031 -3.9163,-15.329 -9.5494,-21.752 z m -210.53,207.35 -21.093,-24.057 191.69,-169.37 21.093,24.057 z m -27.947,-13.327 16.475,18.789 -25.105,5.5086 z m 230.69,-165.81 -1.8976,1.6766 -21.093,-24.057 1.8999,-1.6788 c 2.444,-2.1622 5.8414,-2.9438 9.5645,-2.2007 3.7231,0.74317 7.3243,2.9217 10.142,6.1378 2.8175,3.2125 4.514,7.0759 4.7756,10.876 0.26162,3.7997 -0.94275,7.0841 -3.3911,9.2463 z"
       id="path857"
       inkscape:connector-curvature="0"
       style="stroke-width:0.87417001" /><path
       d="m 240,145.34 c 0,-4.418 -3.582,-8 -8,-8 H 72 c -4.418,0 -8,3.582 -8,8 0,4.418 3.582,8 8,8 h 160 c 4.418,0 8,-3.582 8,-8 z"
       id="path859"
       inkscape:connector-curvature="0" /><path
       d="m 200,185.34 c 0,-4.418 -3.582,-8 -8,-8 H 72 c -4.418,0 -8,3.582 -8,8 0,4.418 3.582,8 8,8 h 120 c 4.418,0 8,-3.582 8,-8 z"
       id="path861"
       inkscape:connector-curvature="0" /><path
       d="M 168,217.34 H 72 c -4.418,0 -8,3.582 -8,8 0,4.418 3.582,8 8,8 h 96 c 4.418,0 8,-3.582 8,-8 0,-4.418 -3.582,-8 -8,-8 z"
       id="path863"
       inkscape:connector-curvature="0" /><path
       d="m 72,273.34 h 80 c 4.418,0 8,-3.582 8,-8 0,-4.418 -3.582,-8 -8,-8 H 72 c -4.418,0 -8,3.582 -8,8 0,4.418 3.582,8 8,8 z"
       id="path865"
       inkscape:connector-curvature="0" /><path
       d="m 264,265.34 c 0,4.418 3.582,8 8,8 h 40 c 4.418,0 8,-3.582 8,-8 0,-4.418 -3.582,-8 -8,-8 h -40 c -4.418,0 -8,3.582 -8,8 z"
       id="path867"
       inkscape:connector-curvature="0" /><path
       d="m 317.66,231 c 1.49,-1.49 2.34,-3.55 2.34,-5.66 0,-2.11 -0.85,-4.17 -2.34,-5.66 -1.49,-1.49 -3.55,-2.34 -5.66,-2.34 -2.1,0 -4.17,0.85 -5.66,2.34 -1.49,1.49 -2.34,3.56 -2.34,5.66 0,2.11 0.85,4.17 2.34,5.66 1.49,1.49 3.56,2.34 5.66,2.34 2.1,0 4.17,-0.85 5.66,-2.34 z"
       id="path869"
       inkscape:connector-curvature="0" /><path
       d="m 64,305.34 c 0,4.418 3.582,8 8,8 h 240 c 4.418,0 8,-3.582 8,-8 0,-4.418 -3.582,-8 -8,-8 H 72 c -4.418,0 -8,3.582 -8,8 z"
       id="path871"
       inkscape:connector-curvature="0" /><path
       d="M 312,337.34 H 72 c -4.418,0 -8,3.582 -8,8 0,4.418 3.582,8 8,8 h 240 c 4.418,0 8,-3.582 8,-8 0,-4.418 -3.582,-8 -8,-8 z"
       id="path873"
       inkscape:connector-curvature="0" /><path
       d="M 312,377.34 H 72 c -4.418,0 -8,3.582 -8,8 0,4.418 3.582,8 8,8 h 240 c 4.418,0 8,-3.582 8,-8 0,-4.418 -3.582,-8 -8,-8 z"
       id="path875"
       inkscape:connector-curvature="0" /></g></clipPath><clipPath
   clipPathUnits="userSpaceOnUse"
   id="clipPath901"><g
     inkscape:label="Clip"
     id="use903"><circle
       r="40.134823"
       cy="244.72099"
       cx="148.59441"
       id="circle907"
       style="fill:#800000;fill-opacity:1;stroke:none;stroke-width:15;stroke-miterlimit:4;stroke-dasharray:none;stroke-opacity:1" /></g></clipPath></defs>
















<path
   style="fill:#000000;fill-opacity:1;stroke:none;stroke-width:0.1;stroke-miterlimit:4;stroke-dasharray:none;stroke-opacity:1"
   d="M 42.122496,62.083933 C 19.451922,62.097887 -0.53757646,82.593485 0.02189185,105.25904 0.10854578,210.57438 -0.15078144,315.89851 0.15043105,421.2084 1.3518266,443.41072 22.039005,462.07823 44.239377,461.05555 c 104.972563,-0.0867 209.953923,0.17268 314.921043,-0.12854 22.20234,-1.20191 40.87019,-21.88843 39.84715,-44.08895 -0.14103,-88.09205 0.28088,-176.22209 -0.20887,-264.29065 -1.28292,-8.46328 -13.62528,-11.18313 -18.34496,-4.04095 -4.42062,6.94952 -0.86577,15.91639 -2.01244,23.59297 -0.12015,82.87247 0.23966,165.76477 -0.17875,248.62494 -1.26497,12.71617 -14.25824,21.53258 -26.58351,19.76491 C 247.9062,440.36946 144.11361,440.72848 40.353074,440.31053 27.621238,439.04967 18.816849,426.05299 20.588164,413.72701 20.707982,309.95418 20.348958,206.16159 20.766913,102.40105 22.059007,89.196526 35.772515,80.627506 48.378741,82.636147 135.1074,82.488188 221.87675,82.930732 308.58024,82.417228 c 8.43313,-1.32347 11.11277,-13.626974 3.99074,-18.334912 -6.94951,-4.420618 -15.91639,-0.865771 -23.59297,-2.012441 -82.28514,0.0094 -164.57053,-0.01878 -246.855514,0.01406 z"
   id="path9"
   inkscape:connector-curvature="0" /><g
   id="g849"
   transform="translate(5.5025714)"><path
     style="fill:#000080"
     inkscape:connector-curvature="0"
     id="path13"
     d="m 242.02129,147.05655 c 0,-4.418 -3.582,-8 -8,-8 H 74.021289 c -4.418,0 -8,3.582 -8,8 0,4.418 3.582,8 8,8 H 234.02129 c 4.418,0 8,-3.582 8,-8 z" /><path
     style="fill:#000080"
     inkscape:connector-curvature="0"
     id="path15"
     d="m 202.02129,187.05655 c 0,-4.418 -3.582,-8 -8,-8 H 74.021289 c -4.418,0 -8,3.582 -8,8 0,4.418 3.582,8 8,8 H 194.02129 c 4.418,0 8,-3.582 8,-8 z" /><path
     style="fill:#000080"
     inkscape:connector-curvature="0"
     id="path17"
     d="M 170.02129,219.05655 H 74.021289 c -4.418,0 -8,3.582 -8,8 0,4.418 3.582,8 8,8 h 96.000001 c 4.418,0 8,-3.582 8,-8 0,-4.418 -3.582,-8 -8,-8 z" /><path
     style="fill:#000080"
     inkscape:connector-curvature="0"
     id="path19"
     d="m 74.021289,275.05655 h 80.000001 c 4.418,0 8,-3.582 8,-8 0,-4.418 -3.582,-8 -8,-8 H 74.021289 c -4.418,0 -8,3.582 -8,8 0,4.418 3.582,8 8,8 z" /><path
     style="fill:#000080"
     inkscape:connector-curvature="0"
     id="path25"
     d="m 66.021289,307.05655 c 0,4.418 3.582,8 8,8 H 314.02129 c 4.418,0 8,-3.582 8,-8 0,-4.418 -3.582,-8 -8,-8 H 74.021289 c -4.418,0 -8,3.582 -8,8 z" /><path
     style="fill:#000080"
     inkscape:connector-curvature="0"
     id="path27"
     d="M 314.02129,339.05655 H 74.021289 c -4.418,0 -8,3.582 -8,8 0,4.418 3.582,8 8,8 H 314.02129 c 4.418,0 8,-3.582 8,-8 0,-4.418 -3.582,-8 -8,-8 z" /><path
     style="fill:#000080"
     inkscape:connector-curvature="0"
     id="path29"
     d="M 314.02129,379.05655 H 74.021289 c -4.418,0 -8,3.582 -8,8 0,4.418 3.582,8 8,8 H 314.02129 c 4.418,0 8,-3.582 8,-8 0,-4.418 -3.582,-8 -8,-8 z" /></g><path
   sodipodi:type="star"
   style="fill:#000080;fill-opacity:1;stroke:#000000;stroke-width:18.04338837;stroke-linejoin:round;stroke-miterlimit:4;stroke-dasharray:none;stroke-opacity:1"
   id="path4698"
   sodipodi:sides="3"
   sodipodi:cx="-22.366158"
   sodipodi:cy="357.34"
   sodipodi:r1="52.633842"
   sodipodi:r2="26.316921"
   sodipodi:arg1="1.0471976"
   sodipodi:arg2="2.0943951"
   inkscape:flatsided="false"
   inkscape:rounded="0"
   inkscape:randomized="0"
   d="M 3.9507615,402.92224 -35.524618,380.13112 -75,357.33999 -35.524618,334.54887 3.9507659,311.75775 3.9507637,357.34 Z"
   inkscape:transform-center-x="7.861912"
   transform="matrix(0.38503519,-0.45686934,0.47203089,0.39781287,68.067078,100.17405)"
   inkscape:transform-center-y="5.8256483e-06" /><path
   style="fill:#aa0000;fill-opacity:1;stroke:#000000;stroke-width:11.10000038;stroke-miterlimit:4;stroke-dasharray:none;stroke-opacity:1"
   id="path985"
   sodipodi:type="arc"
   sodipodi:cx="-337.23083"
   sodipodi:cy="239.11383"
   sodipodi:rx="28.123482"
   sodipodi:ry="29.538126"
   sodipodi:start="0"
   sodipodi:end="3.1390385"
   d="m -309.10735,239.11383 a 28.123482,29.538126 0 0 1 -28.08757,29.5381 28.123482,29.538126 0 0 1 -28.1593,-29.46265 l 28.12339,-0.0754 z"
   transform="rotate(-139.87686)" /><rect
   style="fill:#704a18;fill-opacity:0.81960785;stroke:#000000;stroke-width:11.10000038;stroke-linecap:butt;stroke-linejoin:round;stroke-miterlimit:4;stroke-dasharray:none;stroke-opacity:1"
   id="rect965"
   width="264.96454"
   height="56.298229"
   x="-25.775263"
   y="309.056"
   transform="rotate(-49.876858)" /><rect
   style="fill:#000000;fill-opacity:1;stroke:#000000;stroke-width:11.10000038;stroke-linecap:butt;stroke-linejoin:miter;stroke-miterlimit:4;stroke-dasharray:none;stroke-opacity:1"
   id="rect4714"
   width="0.0010000005"
   height="0.001"
   x="-25.775263"
   y="-365.35422"
   transform="matrix(0.64443253,-0.76466117,-0.76466117,-0.64443253,0,0)" /><rect
   style="fill:#000000;fill-opacity:1;stroke:#000000;stroke-width:11.10000038;stroke-linecap:butt;stroke-linejoin:miter;stroke-miterlimit:4;stroke-dasharray:none;stroke-opacity:1"
   id="rect4714-1"
   width="0.0010000005"
   height="0.001"
   x="-25.776262"
   y="-309.056"
   transform="matrix(0.64443253,-0.76466117,-0.76466117,-0.64443253,0,0)" /><rect
   style="fill:#000000;fill-opacity:1;stroke:#000000;stroke-width:11.10000038;stroke-linecap:butt;stroke-linejoin:miter;stroke-miterlimit:4;stroke-dasharray:none;stroke-opacity:1"
   id="rect4714-7"
   width="0.0010000005"
   height="0.001"
   x="-25.775263"
   y="-309.05499"
   transform="matrix(0.64443253,-0.76466117,-0.76466117,-0.64443253,0,0)" /></svg>

<?xml version="1.0" encoding="UTF-8"?>
<svg version="1.1" viewBox="0 0 446.2 461.1" xml:space="preserve" xmlns="http://www.w3.org/2000/svg" xmlns:cc="http://creativecommons.org/ns#" xmlns:dc="http://purl.org/dc/elements/1.1/" xmlns:rdf="http://www.w3.org/1999/02/22-rdf-syntax-ns#"><metadata><rdf:RDF><cc:Work rdf:about=""><dc:format>image/svg+xml</dc:format><dc:type rdf:resource="http://purl.org/dc/dcmitype/StillImage"/><dc:title/></cc:Work></rdf:RDF></metadata>
















<path d="m42.122 62.084c-22.671 0.013954-42.66 20.51-42.101 43.175 0.086654 105.32-0.17267 210.64 0.12854 315.95 1.2014 22.202 21.889 40.87 44.089 39.847 104.97-0.0867 209.95 0.17268 314.92-0.12854 22.202-1.2019 40.87-21.888 39.847-44.089-0.14103-88.092 0.28088-176.22-0.20887-264.29-1.2829-8.4633-13.625-11.183-18.345-4.041-4.4206 6.9495-0.86577 15.916-2.0124 23.593-0.12015 82.872 0.23966 165.76-0.17875 248.62-1.265 12.716-14.258 21.533-26.584 19.765-103.77-0.11982-207.57 0.2392-311.33-0.17875-12.732-1.2609-21.536-14.258-19.765-26.584 0.11982-103.77-0.23921-207.57 0.17875-311.33 1.2921-13.205 15.006-21.774 27.612-19.765 86.729-0.14796 173.5 0.29458 260.2-0.21892 8.4331-1.3235 11.113-13.627 3.9907-18.335-6.9495-4.4206-15.916-0.86577-23.593-2.0124-82.285 0.0094-164.57-0.01878-246.86 0.01406z"/><g transform="translate(5.5026)" fill="#000080"><path d="m242.02 147.06c0-4.418-3.582-8-8-8h-160c-4.418 0-8 3.582-8 8s3.582 8 8 8h160c4.418 0 8-3.582 8-8z"/><path d="m202.02 187.06c0-4.418-3.582-8-8-8h-120c-4.418 0-8 3.582-8 8s3.582 8 8 8h120c4.418 0 8-3.582 8-8z"/><path d="m170.02 219.06h-96c-4.418 0-8 3.582-8 8s3.582 8 8 8h96c4.418 0 8-3.582 8-8s-3.582-8-8-8z"/><path d="m74.021 275.06h80c4.418 0 8-3.582 8-8s-3.582-8-8-8h-80c-4.418 0-8 3.582-8 8s3.582 8 8 8z"/><path d="m66.021 307.06c0 4.418 3.582 8 8 8h240c4.418 0 8-3.582 8-8s-3.582-8-8-8h-240c-4.418 0-8 3.582-8 8z"/><path d="m314.02 339.06h-240c-4.418 0-8 3.582-8 8s3.582 8 8 8h240c4.418 0 8-3.582 8-8s-3.582-8-8-8z"/><path d="m314.02 379.06h-240c-4.418 0-8 3.582-8 8s3.582 8 8 8h240c4.418 0 8-3.582 8-8s-3.582-8-8-8z"/></g><path transform="matrix(.38504 -.45687 .47203 .39781 68.067 100.17)" d="m3.9508 402.92-78.951-45.582 78.951-45.582-2.2e-6 45.582z" fill="#000080" stroke="#000" stroke-linejoin="round" stroke-width="18.043"/><path transform="rotate(220.12)" d="m-309.11 239.11a28.123 29.538 0 0 1-28.088 29.538 28.123 29.538 0 0 1-28.159-29.463l28.123-0.0754z" fill="#a00" stroke="#000" stroke-width="11.1"/><rect transform="rotate(-49.877)" x="-25.775" y="309.06" width="264.96" height="56.298" fill="#704a18" fill-opacity=".81961" stroke="#000" stroke-linejoin="round" stroke-width="11.1"/><rect transform="matrix(.64443 -.76466 -.76466 -.64443 0 0)" x="-25.775" y="-365.35" width=".001" height=".001" stroke="#000" stroke-width="11.1"/><rect transform="matrix(.64443 -.76466 -.76466 -.64443 0 0)" x="-25.776" y="-309.06" width=".001" height=".001" stroke="#000" stroke-width="11.1"/><rect transform="matrix(.64443 -.76466 -.76466 -.64443 0 0)" x="-25.775" y="-309.05" width=".001" height=".001" stroke="#000" stroke-width="11.1"/></svg>
